X: 269
T: Brushy Run
B: canberra pickers and fiddlers
B: tunes
M:4/4
L:1/8
R: reel
Q: 1/4=100
K:G
V:1 
"G"BABc d2d2|"C"edef g2g2|"G"BABc d2de|"D"AABG E2D2|
"G"BABc d2d2|"C"edef gage|"G"BGAG  (3EFE D2| "D"GBAF "G"G2G2:|
|:+slide+"G"BAGD E2D2|"C"efgd e-fgd|+slide+"G"BAGD EDE-F|"D"GBAF G2G(_B|
"G"=B)AGD E2D2|"C"efgd e-fgd|+slide+"G"BAGD EDE-F|"D"GBAF "G"G2G2:|
% abcbook-tune_id 63ae8f1c46bd2925a8a88261
% abcbook-tune_composer_id 
% abcbook-link-0 https://www.youtube.com/watch?v=EKA8yTAO7YI
% abcbook-link-start-at-0 38
% abcbook-boost 0
% abcbook-difficulty 0
% abcbook-tags canberra pickers and fiddlers,old time tunes,steve ryan,© free
% abcbook-tablature 
% abcbook-transpose 
% abcbook-tuning GDAD
% abcbook-lastupdated 1677370864274
% abcbook-src-url https://tunebook.net/scrape/tunes.abc
% abcbook-soundfonts 
% abcbook-repeats 1


